packages/icons/src/assets/generative-stars.svg

<svg width="16" height="16" viewBox="0 0 16 16" fill="currentColor" xmlns="http://www.w3.org/2000/svg">
<path fill-rule="evenodd" clip-rule="evenodd" d="M11.883 2.87566C11.5762 3.3601 11.1651 3.7712 10.6807 4.078C11.1651 4.38481 11.5762 4.7959 11.883 5.28035C12.1898 4.7959 12.6009 4.38481 13.0853 4.078C12.6009 3.7712 12.1898 3.3601 11.883 2.87566ZM11.2073 1.17675C11.3329 0.411422 12.4331 0.411422 12.5587 1.17675L12.566 1.22151C12.7461 2.33846 13.6225 3.21487 14.7395 3.39497L14.7404 3.39512L14.7843 3.40226C15.5496 3.52791 15.5496 4.6281 14.7843 4.75375L14.7395 4.76103C13.6225 4.94113 12.7461 5.81754 12.566 6.93449L12.5587 6.97926C12.4331 7.74458 11.3329 7.74458 11.2073 6.97926L11.2 6.93449C11.0199 5.81754 10.1435 4.94113 9.02651 4.76103L8.98175 4.75375C8.21642 4.6281 8.21642 3.52791 8.98175 3.40226L9.02651 3.39497C10.1435 3.21487 11.0199 2.33846 11.2 1.22151L11.2073 1.17675ZM5.53397 5.10655L5.64295 4.42965L5.64327 4.42768C5.78098 3.58944 6.98603 3.58944 7.12374 4.42768L7.12406 4.42965L7.23304 5.10655C7.53315 6.96843 8.99348 8.4288 10.8554 8.72895C10.8554 8.72896 10.8554 8.72896 10.8555 8.72897L11.5324 8.83795L11.5343 8.83827C12.3726 8.97598 12.3726 10.181 11.5343 10.3187L11.5324 10.3191L10.8555 10.428C10.8554 10.428 10.8554 10.428 10.8554 10.4281C8.99351 10.7282 7.5332 12.1885 7.23306 14.0504C7.23305 14.0504 7.23305 14.0504 7.23304 14.0505L7.12406 14.7274L7.12374 14.7293C6.98603 15.5676 5.78098 15.5676 5.64327 14.7293L5.64295 14.7274L5.53397 14.0505C5.53396 14.0504 5.53396 14.0504 5.53395 14.0504C5.2338 12.1885 3.77349 10.7282 1.91166 10.4281C1.91162 10.428 1.91158 10.428 1.91155 10.428L1.23466 10.3191L1.23268 10.3187C0.394444 10.181 0.394444 8.97598 1.23268 8.83827L1.23466 8.83795L1.91155 8.72897C1.91158 8.72896 1.91162 8.72896 1.91166 8.72895C3.77353 8.4288 5.23386 6.96843 5.53397 5.10655ZM6.3835 6.63022C5.81546 7.95282 4.75782 9.01046 3.43522 9.5785C4.75782 10.1465 5.81546 11.2042 6.3835 12.5268C6.95155 11.2042 8.00919 10.1465 9.33179 9.5785C8.00919 9.01046 6.95155 7.95282 6.3835 6.63022Z"/>
</svg>

<svg xmlns="http://www.w3.org/2000/svg" width="16" height="16" viewBox="0 0 16 16"><path fill-rule="evenodd" d="M11.883 2.876a3.9 3.9 0 0 1-1.202 1.202c.484.307.895.718 1.202 1.202a3.9 3.9 0 0 1 1.202-1.202 3.9 3.9 0 0 1-1.202-1.202m-.676-1.7c.126-.765 1.226-.765 1.352 0l.007.046a2.625 2.625 0 0 0 2.173 2.173h.001l.044.007c.766.126.766 1.226 0 1.352l-.045.007a2.625 2.625 0 0 0-2.173 2.173l-.007.045c-.126.766-1.226.766-1.352 0l-.007-.045a2.625 2.625 0 0 0-2.173-2.173l-.045-.007c-.766-.126-.766-1.226 0-1.352l.045-.007A2.625 2.625 0 0 0 11.2 1.222zm-5.673 3.93.109-.676v-.002c.138-.839 1.343-.839 1.48 0l.001.002.109.677a4.375 4.375 0 0 0 3.622 3.622l.677.109h.002c.839.138.839 1.343 0 1.48l-.002.001-.677.109a4.375 4.375 0 0 0-3.622 3.622l-.109.677v.002c-.138.839-1.343.839-1.48 0l-.001-.002-.109-.677a4.375 4.375 0 0 0-3.622-3.622l-.677-.109h-.002c-.839-.138-.839-1.343 0-1.48l.002-.001.677-.109a4.375 4.375 0 0 0 3.622-3.622m.85 1.524A5.63 5.63 0 0 1 3.435 9.58a5.63 5.63 0 0 1 2.948 2.948A5.63 5.63 0 0 1 9.332 9.58a5.63 5.63 0 0 1-2.949-2.95"/></svg>
